public/avatar/hat/205.svg

<svg xmlns:xlink="http://www.w3.org/1999/xlink" height="92.9" width="100.7" xmlns="http://www.w3.org/2000/svg"><use height="12.8" transform="translate(26.55 45.4)" width="24.1" xlink:href="#a"/><defs><g id="a" fill-rule="evenodd"><path d="M11.25-2.4 11.7 1l.3 3.5q.1 1.6-.35 3.05l-.25.9-6.8-5.3-.45 1.25-.75-1.45-.65 2.35-1.2-1.55-.15.75-.8 1.75-.65 1.1-1.25-4-1.15 3.05-1.9-2.85-.6.6-.3-.65-6.4 4.95-.15-.85-.3-3.1.2-3.5.4-3.4.2-1.95 2.9 2.7 1.55 1.5L-5.65 1l.05-.05 1.45-.2 1.05-1.4 1.15.7.05-.05.65-.3.35-.4.45-.4.25-.2L1.2.05h.3l.3-.15.3-.3.4-.3.3-.2.8 1.6.7-.35.15-.1.5 1.05.05.05L7.5-1.1l2.55-2.35.95-.9.25 1.95m-.85.85-.1-.9v-.1l-4.5 4.5-.2.2-.35.45L9.8 6.05l1.05.8.2-2.9-.2-2-.45-3.5M3.65 2.2l.15.25.25.5.15-.5q.15-.6-.1-.95h-.8l.35.7m-.45-.75L2.45.35 1.4.9Q.3.75-.25-.1L-.5.2l-.3.25-1.15.45-.25-.1-.75-.1-.15.2-.8.65-1.05.05-.25.6.4 1 .5-.5 1.7 2.15.85-1.85.65-.95 1.25 3.9L.9 4.1l.05-.4.1-1.85V1.8l.2.3 1.25 2 .7-2.65m-14.25 5.4.95-.8 4.45-3.4-.25-.4V2.2L-7.8.1l-2.75-2.65-.7 4.9v1.6l.05.6v.9l.15 1.4" transform="translate(12.1 4.35)"/><path d="m11.05 3.95-.2 2.9-1.05-.8L5.25 2.6l.35-.45 1.1.7L10.05-.8l1 4.75M9.8 6.05 9.9-.4 7.95 2.75l1.4.05L8.1 4.1l1.4-.2.3 2.15m-6-3.6.1.2.2-1.15q.25.35.1.95l-.15.5-.25-.5m-.6-1L2.5 4.1l-1.25-2 1.1 1.35.85-2m-2.15.4L.95 3.7l-.05.4-.75 1.85-1.25-3.9-.65.95-.85 1.85-1.7-2.15-.5.5-.4-1 .75-.35 1.7.3L-2.6.9l.85 2.1.65-1 .65.35L.15.8l.9 1.05M.4 3.8.3 1.55l-.2 4.1.3-1.85M-10.65.75l.05-.35.05-.3.05-.3.1-.55V-.9h.05l4.45 3.15.25.4-4.45 3.4-.95.8q.35-.55.35-1.2l-.1-2 .15-2.9m.55 5.3.35-2.15 1.4.2-1.3-1.3 1.4-.05L-10.2-.4l.1 6.45m7.05-3.2-.85-.3 1.2 2.15-.35-1.85" fill="#756548" transform="translate(12.1 4.35)"/><path d="m5.8 1.95 4.6-3.5.45 3.5.2 2-1-4.75L6.7 2.85l-1.1-.7.2-.2m-2 .5-.15-.25-.35-.7h.8l-.2 1.15-.1-.2M1.75 1l-.45.2.4.25.2.4.45.95L2 .65 1.75 1M-.5.2l.25-.3Q.3.75 1.4.9L2.45.35l.75 1.1-.85 2-1.1-1.35-.2-.3v.05L.15.8l-.6 1.55L-1.1 2l-.65 1L-2.6.9l-.15 1.25-1.7-.3-.75.35.25-.6 1.05-.05.8-.65-.35.95.6-.45-.1-.7.75.1.25.1L-.8.45l-.3.25.45 1.2L-.4.1l-.1.1m.9 3.6L.1 5.65l.2-4.1.1 2.25M-10.65.75l-.15 2.9.1 2q0 .65-.35 1.2l-.15-1.4V5.4q.35-1.9.4-3.75l.15-.9m4.75 1.5L-10.35-.9-10-2l-.55-.55L-7.8.1l1.9 2.1v.05m-5.35.1.05 2.2-.05-.6v-1.6m9.75-.1-.15-.95-.95-.5 1.1 1.45m-1.55.6.35 1.85-1.2-2.15.85.3" fill="#9b8f72" transform="translate(12.1 4.35)"/><path d="M9.8 6.05 9.5 3.9l-1.4.2 1.25-1.3-1.4-.05L9.9-.4l-.1 6.45m-19.9 0-.1-6.45 1.95 3.15-1.4.05 1.3 1.3-1.4-.2-.35 2.15" fill="#3d3326" transform="translate(12.1 4.35)"/><path d="m5.8 1.95 4.5-4.5v.1l.1.9-4.6 3.5M1.75 1 2 .65l.35 2.15-.45-.95-.2-.4-.4-.25.45-.2M-3.1.9l.15-.2.1.7-.6.45.35-.95M-.8.45-.5.2l.1-.1-.25 1.8L-1.1.7l.3-.25m-9.6-1.2-.1.55-.05.3-.05.3-.05.35-.15.9q-.05 1.85-.4 3.75v-.85l-.05-2.2.7-4.9.55.55-.35 1.1h-.05v.15m8.9 3L-2.6.8l.95.5.15.95" fill="#fff5da" transform="translate(12.1 4.35)"/></g></defs></svg>

<?xml version="1.0" encoding="UTF-8" standalone="no"?>
<svg xmlns:xlink="http://www.w3.org/1999/xlink" height="92.9px" width="100.7px" xmlns="http://www.w3.org/2000/svg">
  <g transform="matrix(1.0, 0.0, 0.0, 1.0, 38.65, 49.75)">
    <use height="12.8" transform="matrix(1.0, 0.0, 0.0, 1.0, -12.1, -4.35)" width="24.1" xlink:href="#shape0"/>
  </g>
  <defs>
    <g id="shape0" transform="matrix(1.0, 0.0, 0.0, 1.0, 12.1, 4.35)">
      <path d="M11.25 -2.4 L11.7 1.0 12.0 4.5 Q12.1 6.1 11.65 7.55 L11.4 8.45 4.6 3.15 4.15 4.4 3.4 2.95 2.75 5.3 1.55 3.75 1.4 4.5 0.6 6.25 -0.05 7.35 -1.3 3.35 -2.45 6.4 -4.35 3.55 -4.95 4.15 -5.25 3.5 -11.65 8.45 -11.8 7.6 -12.1 4.5 -11.9 1.0 -11.5 -2.4 -11.3 -4.35 -8.4 -1.65 -6.85 -0.15 -5.65 1.0 -5.6 0.95 -4.15 0.75 -3.1 -0.65 -1.95 0.05 -1.9 0.0 -1.25 -0.3 -0.9 -0.7 -0.45 -1.1 -0.2 -1.3 1.2 0.05 1.5 0.05 1.8 -0.1 2.1 -0.4 2.5 -0.7 2.8 -0.9 3.6 0.7 4.3 0.35 4.45 0.25 4.95 1.3 5.0 1.35 7.5 -1.1 10.05 -3.45 11.0 -4.35 11.25 -2.4 M10.4 -1.55 L10.3 -2.45 10.3 -2.55 5.8 1.95 5.6 2.15 5.25 2.6 9.8 6.05 10.85 6.85 11.05 3.95 10.85 1.95 10.4 -1.55 M3.65 2.2 L3.8 2.45 4.05 2.95 4.2 2.45 Q4.35 1.85 4.1 1.5 L3.3 1.5 3.65 2.2 M3.2 1.45 L2.45 0.35 1.4 0.9 Q0.3 0.75 -0.25 -0.1 L-0.5 0.2 -0.8 0.45 -1.95 0.9 -2.2 0.8 -2.95 0.7 -3.1 0.9 -3.9 1.55 -4.95 1.6 -5.2 2.2 -4.8 3.2 -4.3 2.7 -2.6 4.85 -1.75 3.0 -1.1 2.05 0.15 5.95 0.9 4.1 0.95 3.7 1.05 1.85 1.05 1.8 1.25 2.1 2.5 4.1 3.2 1.45 M-11.05 6.85 L-10.1 6.05 -5.65 2.65 -5.9 2.25 -5.9 2.2 -7.8 0.1 -10.55 -2.55 -11.25 2.35 -11.25 3.95 -11.2 4.55 -11.2 5.4 -11.2 5.45 -11.05 6.85" fill="#000000" fill-rule="evenodd" stroke="none"/>
      <path d="M11.05 3.95 L10.85 6.85 9.8 6.05 5.25 2.6 5.6 2.15 6.7 2.85 10.05 -0.8 11.05 3.95 M9.8 6.05 L9.9 -0.4 7.95 2.75 9.35 2.8 8.1 4.1 9.5 3.9 9.8 6.05 M3.8 2.45 L3.9 2.65 4.1 1.5 Q4.35 1.85 4.2 2.45 L4.05 2.95 3.8 2.45 M3.2 1.45 L2.5 4.1 1.25 2.1 2.35 3.45 3.2 1.45 M1.05 1.85 L0.95 3.7 0.9 4.1 0.15 5.95 -1.1 2.05 -1.75 3.0 -2.6 4.85 -4.3 2.7 -4.8 3.2 -5.2 2.2 -4.45 1.85 -2.75 2.15 -2.6 0.9 -1.75 3.0 -1.1 2.0 -0.45 2.35 0.15 0.8 1.05 1.85 M0.4 3.8 L0.3 1.55 0.1 5.65 0.4 3.8 M-10.65 0.75 L-10.6 0.4 -10.55 0.1 -10.5 -0.2 -10.4 -0.75 -10.4 -0.9 -10.35 -0.9 -5.9 2.25 -5.65 2.65 -10.1 6.05 -11.05 6.85 Q-10.7 6.3 -10.7 5.65 L-10.8 3.65 -10.65 0.75 M-10.1 6.05 L-9.75 3.9 -8.35 4.1 -9.65 2.8 -8.25 2.75 -10.2 -0.4 -10.1 6.05 M-3.05 2.85 L-3.9 2.55 -2.7 4.7 -3.05 2.85" fill="#756548" fill-rule="evenodd" stroke="none"/>
      <path d="M5.8 1.95 L10.4 -1.55 10.85 1.95 11.05 3.95 10.05 -0.8 6.7 2.85 5.6 2.15 5.8 1.95 M3.8 2.45 L3.65 2.2 3.3 1.5 4.1 1.5 3.9 2.65 3.8 2.45 M1.75 1.0 L1.3 1.2 1.7 1.45 1.9 1.85 2.35 2.8 2.0 0.65 1.75 1.0 M-0.5 0.2 L-0.25 -0.1 Q0.3 0.75 1.4 0.9 L2.45 0.35 3.2 1.45 2.35 3.45 1.25 2.1 1.05 1.8 1.05 1.85 0.15 0.8 -0.45 2.35 -1.1 2.0 -1.75 3.0 -2.6 0.9 -2.75 2.15 -4.45 1.85 -5.2 2.2 -4.95 1.6 -3.9 1.55 -3.1 0.9 -3.45 1.85 -2.85 1.4 -2.95 0.7 -2.2 0.8 -1.95 0.9 -0.8 0.45 -1.1 0.7 -0.65 1.9 -0.4 0.1 -0.5 0.2 M0.4 3.8 L0.1 5.65 0.3 1.55 0.4 3.8 M-10.65 0.75 L-10.8 3.65 -10.7 5.65 Q-10.7 6.3 -11.05 6.85 L-11.2 5.45 -11.2 5.4 Q-10.85 3.5 -10.8 1.65 L-10.65 0.75 M-5.9 2.25 L-10.35 -0.9 -10.0 -2.0 -10.55 -2.55 -7.8 0.1 -5.9 2.2 -5.9 2.25 M-11.25 2.35 L-11.2 4.55 -11.25 3.95 -11.25 2.35 M-1.5 2.25 L-1.65 1.3 -2.6 0.8 -1.5 2.25 M-3.05 2.85 L-2.7 4.7 -3.9 2.55 -3.05 2.85" fill="#9b8f72" fill-rule="evenodd" stroke="none"/>
      <path d="M9.8 6.05 L9.5 3.9 8.1 4.1 9.35 2.8 7.95 2.75 9.9 -0.4 9.8 6.05 M-10.1 6.05 L-10.2 -0.4 -8.25 2.75 -9.65 2.8 -8.35 4.1 -9.75 3.9 -10.1 6.05" fill="#3d3326" fill-rule="evenodd" stroke="none"/>
      <path d="M5.8 1.95 L10.3 -2.55 10.3 -2.45 10.4 -1.55 5.8 1.95 M1.75 1.0 L2.0 0.65 2.35 2.8 1.9 1.85 1.7 1.45 1.3 1.2 1.75 1.0 M-3.1 0.9 L-2.95 0.7 -2.85 1.4 -3.45 1.85 -3.1 0.9 M-0.8 0.45 L-0.5 0.2 -0.4 0.1 -0.65 1.9 -1.1 0.7 -0.8 0.45 M-10.4 -0.75 L-10.5 -0.2 -10.55 0.1 -10.6 0.4 -10.65 0.75 -10.8 1.65 Q-10.85 3.5 -11.2 5.4 L-11.2 4.55 -11.25 2.35 -10.55 -2.55 -10.0 -2.0 -10.35 -0.9 -10.4 -0.9 -10.4 -0.75 M-1.5 2.25 L-2.6 0.8 -1.65 1.3 -1.5 2.25" fill="#fff5da" fill-rule="evenodd" stroke="none"/>
    </g>
  </defs>
</svg>
